static/logo.svg

<svg width="246" height="256" viewBox="0 0 246 256" fill="none" xmlns="http://www.w3.org/2000/svg">
<path d="M25.3483 80.9307L185.846 32.1813L185.762 55.2264L25.265 103.976L25.3483 80.9307Z" fill="#FE4F03"/>
<path d="M60.8023 197.656L221.3 148.907L221.216 171.952L60.719 220.701L60.8023 197.656Z" fill="#FE4F03"/>
<path d="M34.2117 110.112L132.293 80.3208L132.21 103.366L34.1284 133.157L34.2117 110.112Z" fill="#FE4F03"/>
<path d="M74.6885 129.691L172.77 99.8999L172.687 122.945L74.6052 152.736L74.6885 129.691Z" fill="#FE4F03"/>
<path d="M78.6382 32.8712L172.754 4.28438L172.933 27.2498L78.8171 55.8366L78.6382 32.8712Z" fill="#FE4F03"/>
<path d="M114.354 149.517L212.436 119.726L212.353 142.771L114.271 172.562L114.354 149.517Z" fill="#FE4F03"/>
<path d="M76.092 224.886L167.748 197.046L168.089 219.962L76.4335 247.802L76.092 224.886Z" fill="#FE4F03"/>
</svg>

<svg xmlns="http://www.w3.org/2000/svg" width="246" height="256" fill="none" viewBox="0 0 246 256"><path fill="#FF5E18" d="m25.348 80.93 160.498-48.749-.084 23.045-160.497 48.75.083-23.045ZM60.802 197.656 221.3 148.907l-.084 23.045-160.497 48.749.083-23.045ZM34.212 110.112l98.081-29.791-.083 23.045-98.082 29.791.084-23.045ZM74.689 129.691 172.77 99.9l-.083 23.045-98.082 29.791.084-23.045ZM54.8 40.112 168.806 5.484l-1.136 23.364L53.664 63.477 54.8 40.112ZM114.354 149.517l98.082-29.792-.083 23.045-98.082 29.792.083-23.045ZM80.138 223.657l117.625-35.728-1.375 23.438-117.626 35.727 1.376-23.437Z"/></svg>
